X:1
T:Make Christ King
T:Robert Matthews, 1911
T:Make Christ King
T:Public Domain
T:Public Domain
T:Public Domain
C:Robert Matthews, 1911
Z:Public Domain
%%score ( 1 2 ) ( 3 4 )
L:1/8
M:4/4
K:F
V:1 treble 
V:2 treble 
V:3 bass 
V:4 bass 
V:1
 C2 [CD][CE] [CF]2 [CG][CA] | [EA]2 [EB]2 [EG]4 | C2 [CD][CE] [CF]2 ([CG][CA]) | %3
w: 1.~Hark to the call of the|Cru- sade, Christ|o- ver all will King *|
w: 2.~Strong is the foe of the|Cru- sade, Sin|in its ar- mor~is well *|
w: 3.~Come, in His Name join the|grim throng, Stand|for the right, and down *|
 [EA]2 [EB]2 [EG]4 | D2 D[DE] [DF]2 [DF][EG] | [FA]2 [DF]2 D4 | [CG]4 [Fd]4 | [Ec]6 z2 || %8
w: made; Out to|the world let the chal- lenge|Christ King! *|||
w: rayed; In- to|the fight we our best must|Christ King! Hail|the King|of|
w: wrong; Glo- ry|to god, let the cho- rus|Christ King! *|||
"^Refrain" C2 [CA]>[CG] [CF][CE][CF][CA] | [Ec]2 [EG]>[EA] [EG]2 [CF]2 | %10
w: ||
w: kings! Tri- um- phant Re- deem- er!|march the sol- diers of|
w: ||
 [^Gd]2 [G=B]>[GB] [Ad][Ac][=G_B][FA] | [FG]2 (G>A) [EG]4 | [^CA]2 [CE]>[CG] [DF][DE] [DF]2 | %13
w: |||
w: the New Cru- sade. This is the|bat- tle * cry:|made the King! And to our|
w: |||
 [Ec]2 [EG]>[EB] [FA]4 | G2 c>A GFEF | G2 G2 C4 | [EB]2 [EB]>[EA] [EB]2 [Ec][EB] | %17
w: ||||
w: Sov- ’reign we al-|le- giance bring; Prince, Guide and Coun-|the stan- dard|ry! Hail to the call of|
w: ||||
 [FA][CG] ([CF]2 [Aa][Gg] [Ff]2) | [^CA]2 [CA]>[C^G] [CA]2 [CB][CA] | %19
w: ||
w: the New Cru- * * *|sade: Make Christ King! * *|
w: ||
 [DF][^CE] (.D2 [Ff][De] [Dd]2) | [Bd]2 [Bd]>[Ad] [^G_d]2 [Gd]>[Gd] | [Ac]2 [Ac]2 [_A=Bf]4 | %22
w: |||
w: |||
w: |||
 [Ac]4 [Ec]4 | [CF]6 z2 |] %24
w: ||
w: ||
w: ||
V:2
 C2 x6 | x8 | C2 x6 | x8 | D2 D x5 | x4 D4 | x8 | x8 || C2 x6 | x8 | x8 | x2 F2 x4 | x8 | x8 | %14
w: New||be||ring: Make||||||||||
w: New||ar-||fling: Make|to|||On|||Christ|||
w: pil-||the||sing, Make||||||||||
 G2 c>A GFEF | G2 G2 C4 | x8 | x8 | x8 | x2 D2 x4 | x8 | x8 | x8 | x8 |] %24
w: ||||||||||
w: se- lor He shall be. Car- ry|to vic- to-|||||||||
w: ||||||||||
V:3
 [F,A,]2 [F,A,][F,A,] [F,A,]2 [F,A,][F,A,] | [C,B,]2 [C,B,]2 [C,B,]4 | %2
 [F,A,]2 [F,A,][F,A,] [F,A,]2 [F,A,][F,A,] | [C,B,]2 [C,B,]2 [C,B,]4 | %4
 [D,F,]2 [D,F,][D,G,] [D,A,]2 [D,A,][D,A,] | [D,D]2 [D,A,]2 [D,F,]4 | [E,G,]4 [G,=B,]4 | %7
 [C,G,]6 z2 || [F,A,]2 [F,A,]>[F,A,] [F,A,][F,A,][F,A,][F,A,] | %9
 [C,B,]2 [C,B,]>[C,B,] [C,B,]2 [F,A,]2 | [F,=B,]2 [F,D]>[F,D] [F,C][F,C][F,C][F,C] | %11
 [D,=B,]2 [D,B,]2 [C,_B,]4 | [A,,G,]2 [A,,G,]>[A,,A,] [D,A,][D,A,] [D,A,]2 | %13
 [C,B,]2 [C,B,]>[C,C] [F,C]4 | G,2 C>A, G,F,E,F, | G,2 G,2 C,4 | %16
 [C,G,]2 [C,G,]>[C,^F,] [C,G,]2 [C,G,][C,C] | [F,C][F,B,] ([F,A,]2 [A,,A,][G,,G,] [F,,F,]2) | %18
 [A,,G,]2 [A,,G,]>[A,,G,] [A,,G,]2 [A,,G,][A,,G,] | %19
 [D,A,][D,G,] (.[D,F,]2 [F,,F,][E,,E,] [D,,D,]2) | [B,,F]2 [B,,F]>[B,,F] [=B,,F]2 [B,,F]>[B,,F] | %21
 [C,F]2 [C,F]2 [_D,F]4 | [C,F]4 [C,B,]4 | [F,A,]6 z2 |] %24
V:4
 x8 | x8 | x8 | x8 | x8 | x8 | x8 | x8 || x8 | x8 | x8 | x8 | x8 | x8 | G,2 C>A, G,F,E,F, | %15
 G,2 G,2 C,4 | x8 | x8 | x8 | x8 | x8 | x8 | x8 | x8 |] %24

